X:84
T:Tom Bain's Lum 
C:Joe Buchanan's Scottish Tome - Page 386.2
I:386 2
Z:Carl Allison
C:P.M. G.S. MacLenna
R:Hornpipe
L:1/8
M:4/4
K:D
A>B | "D"d2 (f<a) AB ((3ddd) | A>Bd>e f>df<c | "A"e2 (c<e) A>c ((3ccc) | "A7"A>ce>c a>gf>e |
"D"d2 (f<a) A>B ((3ddd) | A>Bd>e f>df<a | "A"A>c ((3ccc) A>ce>c | "A7"a>gf>e "D"d2 :|
(f>g) | "D"a2 f>d A>d ((3ddd) | A>df>d a>d(f<d) | "A"g2 e>cA>c ((3ccc) | "A7"A>ce>c g2 (f>g) |
"D"a2 f>d A>d ((3ddd) | A>df>d a>d ((3ddd) | "G"G>B ((3BBB) "A"A>ce>c | "A7"a>gf>e "D"d2 :|
A>B | "D"((3ddd) d>e f>AA>e | f>ed>e f2 A>B | "A"((3ccc) c>d e>cA>c | "A7"a>gf>e d2 AB |
"D"((3ddd) d>e f>AA>e | f>ed>e f2 A>B | "G"G>B ((3BBB) "A"A>ce>c | "A7"a>gf>e "D"d2 :|
d>B | "D"A>d ((3ddd) A>d ((3ddd) | "G"G>B ((3BBB) B2 | "A"A>c ((3ccc) c>BA>c | A>ce>c "D"d2 d>B |
"D"A>d ((3ddd) A>d ((3ddd) | "G"G>B ((3BBB) g>fe>c | "A"A>c ((3ccc) "A"A>ce>c | "A7"A>ce>c a>gf>e "D"d2 :|
